build/assets/img/about-us/css.svg

<svg width="56" height="37" viewBox="0 0 56 37" fill="none" xmlns="http://www.w3.org/2000/svg">
<path fill-rule="evenodd" clip-rule="evenodd" d="M0.382812 1.82982C0.382812 0.995872 1.05854 0.319824 1.89209 0.319824H54.0308C54.8643 0.319824 55.5401 0.99587 55.5401 1.82982V34.944C55.5401 35.778 54.8643 36.454 54.0308 36.454H1.89209C1.05854 36.454 0.382812 35.778 0.382812 34.944V1.82982ZM1.89209 1.14346C1.5132 1.14346 1.20605 1.45075 1.20605 1.82982V34.944C1.20605 35.3231 1.5132 35.6304 1.89209 35.6304H54.0308C54.4097 35.6304 54.7168 35.3231 54.7168 34.944V1.82982C54.7168 1.45075 54.4097 1.14346 54.0308 1.14346H1.89209Z" fill="#A62E41"/>
<path d="M54.981 6.24666C54.981 6.36981 42.8735 6.46833 27.9114 6.46833C12.9493 6.46833 0.841797 6.36981 0.841797 6.24666C0.841797 6.12351 12.9493 6.0332 27.9114 6.0332C42.8735 6.0332 54.981 6.13172 54.981 6.24666Z" fill="url(#paint0_linear)"/>
<path d="M4.92535 3.70249C4.94202 3.83662 4.91746 3.97265 4.85493 4.09246C4.79241 4.21226 4.69489 4.31016 4.57537 4.37309C4.45586 4.43603 4.32002 4.46102 4.18596 4.44474C4.05189 4.42846 3.92596 4.37167 3.82495 4.28195C3.72394 4.19223 3.65266 4.07384 3.62058 3.94254C3.5885 3.81124 3.59716 3.67328 3.6454 3.54703C3.69364 3.42079 3.77917 3.31225 3.8906 3.23589C4.00203 3.15952 4.13407 3.11895 4.26912 3.11959C4.43318 3.11059 4.59415 3.16678 4.71704 3.27594C4.83993 3.38509 4.91479 3.53839 4.92535 3.70249Z" fill="url(#paint1_linear)"/>
<path d="M7.32965 3.70249C7.34632 3.83662 7.32176 3.97265 7.25923 4.09246C7.19671 4.21226 7.0992 4.31016 6.97968 4.37309C6.86017 4.43603 6.72432 4.46102 6.59025 4.44474C6.45619 4.42846 6.33027 4.37167 6.22926 4.28195C6.12825 4.19223 6.05695 4.07384 6.02488 3.94254C5.9928 3.81124 6.00146 3.67328 6.0497 3.54703C6.09794 3.42079 6.18348 3.31225 6.29491 3.23589C6.40634 3.15952 6.53837 3.11895 6.67341 3.11959C6.83747 3.11059 6.99845 3.16678 7.12134 3.27594C7.24422 3.38509 7.31909 3.53839 7.32965 3.70249Z" fill="url(#paint2_linear)"/>
<path d="M9.7359 3.70249C9.75257 3.83662 9.72801 3.97265 9.66548 4.09246C9.60296 4.21226 9.50544 4.31016 9.38592 4.37309C9.26641 4.43603 9.13057 4.46102 8.9965 4.44474C8.86244 4.42846 8.73651 4.37167 8.6355 4.28195C8.53449 4.19223 8.4632 4.07384 8.43113 3.94254C8.39905 3.81124 8.40771 3.67328 8.45595 3.54703C8.50419 3.42079 8.58972 3.31225 8.70115 3.23589C8.81258 3.15952 8.94462 3.11895 9.07966 3.11959C9.24372 3.11059 9.4047 3.16678 9.52759 3.27594C9.65047 3.38509 9.72534 3.53839 9.7359 3.70249Z" fill="url(#paint3_linear)"/>
<path d="M18.4259 26.4968C20.5083 26.4968 21.92 25.5082 22.9083 24.1664L21.6553 23.4778C20.9848 24.4841 19.7671 25.1904 18.4259 25.1904C15.8495 25.1904 13.8907 23.1953 13.8907 20.4058C13.8907 17.5986 15.8495 15.6212 18.4259 15.6212C19.7671 15.6212 20.9848 16.3451 21.6553 17.3338L22.8906 16.6452C21.9553 15.321 20.5083 14.3147 18.4259 14.3147C15.0377 14.3147 12.373 16.7864 12.373 20.4058C12.373 24.0251 15.0377 26.4968 18.4259 26.4968Z" fill="url(#paint4_linear)"/>
<path d="M28.5867 26.4968C31.7632 26.4968 32.9279 24.749 32.9279 23.0364C32.9279 18.6402 25.9573 20.1586 25.9573 17.5103C25.9573 16.398 26.9632 15.6388 28.375 15.6388C29.6632 15.6388 30.8985 16.0802 31.7808 17.0513L32.6632 15.9743C31.6749 14.9326 30.2808 14.3324 28.4808 14.3324C26.1691 14.3324 24.4397 15.6565 24.4397 17.5986C24.4397 21.8005 31.4102 20.1233 31.4102 23.16C31.4102 24.0604 30.7397 25.1904 28.6397 25.1904C26.9809 25.1904 25.7103 24.3782 24.9338 23.5131L24.0691 24.6254C25.0397 25.72 26.5397 26.4968 28.5867 26.4968Z" fill="url(#paint5_linear)"/>
<path d="M38.9267 26.4968C42.1032 26.4968 43.2679 24.749 43.2679 23.0364C43.2679 18.6402 36.2973 20.1586 36.2973 17.5103C36.2973 16.398 37.3032 15.6388 38.715 15.6388C40.0032 15.6388 41.2385 16.0802 42.1208 17.0513L43.0032 15.9743C42.0149 14.9326 40.6208 14.3324 38.8208 14.3324C36.5091 14.3324 34.7797 15.6565 34.7797 17.5986C34.7797 21.8005 41.7502 20.1233 41.7502 23.16C41.7502 24.0604 41.0797 25.1904 38.9797 25.1904C37.3209 25.1904 36.0503 24.3782 35.2738 23.5131L34.4091 24.6254C35.3797 25.72 36.8797 26.4968 38.9267 26.4968Z" fill="url(#paint6_linear)"/>
<defs>
<linearGradient id="paint0_linear" x1="53.3121" y1="6.25077" x2="47.0576" y2="-10.4581" gradientUnits="userSpaceOnUse">
<stop stop-color="#A62E41"/>
<stop offset="1" stop-color="#E13152"/>
</linearGradient>
<linearGradient id="paint1_linear" x1="4.88947" y1="3.78412" x2="3.64088" y2="3.75735" gradientUnits="userSpaceOnUse">
<stop stop-color="#A62E41"/>
<stop offset="1" stop-color="#E13152"/>
</linearGradient>
<linearGradient id="paint2_linear" x1="7.29377" y1="3.78412" x2="6.04518" y2="3.75735" gradientUnits="userSpaceOnUse">
<stop stop-color="#A62E41"/>
<stop offset="1" stop-color="#E13152"/>
</linearGradient>
<linearGradient id="paint3_linear" x1="9.70002" y1="3.78412" x2="8.45143" y2="3.75735" gradientUnits="userSpaceOnUse">
<stop stop-color="#A62E41"/>
<stop offset="1" stop-color="#E13152"/>
</linearGradient>
<linearGradient id="paint4_linear" x1="42.3155" y1="20.4058" x2="13.3597" y2="18.8291" gradientUnits="userSpaceOnUse">
<stop stop-color="#A62E41"/>
<stop offset="1" stop-color="#E13152"/>
</linearGradient>
<linearGradient id="paint5_linear" x1="42.3155" y1="20.4058" x2="13.3597" y2="18.8291" gradientUnits="userSpaceOnUse">
<stop stop-color="#A62E41"/>
<stop offset="1" stop-color="#E13152"/>
</linearGradient>
<linearGradient id="paint6_linear" x1="42.3155" y1="20.4058" x2="13.3597" y2="18.8291" gradientUnits="userSpaceOnUse">
<stop stop-color="#A62E41"/>
<stop offset="1" stop-color="#E13152"/>
</linearGradient>
</defs>
</svg>

<svg width="56" height="37" fill="none" xmlns="http://www.w3.org/2000/svg"><path fill-rule="evenodd" clip-rule="evenodd" d="M.383 1.83c0-.834.676-1.51 1.51-1.51H54.03c.833 0 1.51.676 1.51 1.51v33.114a1.51 1.51 0 01-1.51 1.51H1.892a1.51 1.51 0 01-1.51-1.51V1.83zm1.51-.687a.686.686 0 00-.687.687v33.114c0 .38.307.686.686.686h52.139a.686.686 0 00.686-.686V1.83a.686.686 0 00-.686-.687H1.892z" fill="#A62E41"/><path d="M54.981 6.247c0 .123-12.108.221-27.07.221S.841 6.37.841 6.247s12.108-.214 27.07-.214 27.07.099 27.07.214z" fill="url(#paint0_linear)"/><path d="M4.925 3.702a.665.665 0 11-.656-.582.623.623 0 01.656.582z" fill="url(#paint1_linear)"/><path d="M7.33 3.702a.665.665 0 11-.657-.582.623.623 0 01.657.582z" fill="url(#paint2_linear)"/><path d="M9.736 3.702a.665.665 0 11-.656-.582.623.623 0 01.656.582z" fill="url(#paint3_linear)"/><path d="M18.426 26.497c2.082 0 3.494-.989 4.482-2.33l-1.253-.69a3.925 3.925 0 01-3.23 1.713c-2.575 0-4.534-1.995-4.534-4.784 0-2.807 1.959-4.785 4.535-4.785 1.341 0 2.559.724 3.23 1.713l1.235-.689c-.936-1.324-2.383-2.33-4.465-2.33-3.388 0-6.053 2.471-6.053 6.09 0 3.62 2.665 6.092 6.053 6.092z" fill="url(#paint4_linear)"/><path d="M28.587 26.497c3.176 0 4.34-1.748 4.34-3.46 0-4.397-6.97-2.878-6.97-5.527 0-1.112 1.006-1.871 2.418-1.871 1.288 0 2.523.441 3.406 1.412l.882-1.077c-.988-1.041-2.382-1.642-4.182-1.642-2.312 0-4.041 1.324-4.041 3.267 0 4.201 6.97 2.524 6.97 5.561 0 .9-.67 2.03-2.77 2.03-1.66 0-2.93-.812-3.706-1.677l-.865 1.112c.97 1.095 2.47 1.872 4.518 1.872z" fill="url(#paint5_linear)"/><path d="M38.927 26.497c3.176 0 4.34-1.748 4.34-3.46 0-4.397-6.97-2.878-6.97-5.527 0-1.112 1.006-1.871 2.418-1.871 1.288 0 2.523.441 3.406 1.412l.882-1.077c-.988-1.041-2.382-1.642-4.182-1.642-2.312 0-4.041 1.324-4.041 3.267 0 4.201 6.97 2.524 6.97 5.561 0 .9-.67 2.03-2.77 2.03-1.66 0-2.93-.812-3.706-1.677l-.865 1.112c.97 1.095 2.47 1.872 4.518 1.872z" fill="url(#paint6_linear)"/><defs><linearGradient id="paint0_linear" x1="53.312" y1="6.251" x2="47.058" y2="-10.458" gradientUnits="userSpaceOnUse"><stop stop-color="#A62E41"/><stop offset="1" stop-color="#E13152"/></linearGradient><linearGradient id="paint1_linear" x1="4.889" y1="3.784" x2="3.641" y2="3.757" gradientUnits="userSpaceOnUse"><stop stop-color="#A62E41"/><stop offset="1" stop-color="#E13152"/></linearGradient><linearGradient id="paint2_linear" x1="7.294" y1="3.784" x2="6.045" y2="3.757" gradientUnits="userSpaceOnUse"><stop stop-color="#A62E41"/><stop offset="1" stop-color="#E13152"/></linearGradient><linearGradient id="paint3_linear" x1="9.7" y1="3.784" x2="8.451" y2="3.757" gradientUnits="userSpaceOnUse"><stop stop-color="#A62E41"/><stop offset="1" stop-color="#E13152"/></linearGradient><linearGradient id="paint4_linear" x1="42.316" y1="20.406" x2="13.36" y2="18.829" gradientUnits="userSpaceOnUse"><stop stop-color="#A62E41"/><stop offset="1" stop-color="#E13152"/></linearGradient><linearGradient id="paint5_linear" x1="42.316" y1="20.406" x2="13.36" y2="18.829" gradientUnits="userSpaceOnUse"><stop stop-color="#A62E41"/><stop offset="1" stop-color="#E13152"/></linearGradient><linearGradient id="paint6_linear" x1="42.316" y1="20.406" x2="13.36" y2="18.829" gradientUnits="userSpaceOnUse"><stop stop-color="#A62E41"/><stop offset="1" stop-color="#E13152"/></linearGradient></defs></svg>
